ssr-blog/static/cart--small.svg

<svg width="16" height="16" viewBox="0 0 16 16" fill="none" xmlns="http://www.w3.org/2000/svg">
<path fill-rule="evenodd" clip-rule="evenodd" d="M3.92 1.74C4.03331 1.58892 4.21115 1.5 4.4 1.5H11.6C11.7889 1.5 11.9667 1.58892 12.08 1.74L13.88 4.14C13.9579 4.24386 14 4.37018 14 4.5V12.9C14 13.3774 13.8104 13.8352 13.4728 14.1728C13.1352 14.5104 12.6774 14.7 12.2 14.7H3.8C3.32261 14.7 2.86477 14.5104 2.52721 14.1728C2.18964 13.8352 2 13.3774 2 12.9V4.5C2 4.37018 2.04211 4.24386 2.12 4.14L3.92 1.74ZM4.7 2.7L3.2 4.7V12.9C3.2 13.0591 3.26321 13.2117 3.37574 13.3243C3.48826 13.4368 3.64087 13.5 3.8 13.5H12.2C12.3591 13.5 12.5117 13.4368 12.6243 13.3243C12.7368 13.2117 12.8 13.0591 12.8 12.9V4.7L11.3 2.7H4.7Z" fill="#959DAD"/>
<path fill-rule="evenodd" clip-rule="evenodd" d="M2 4.5C2 4.16863 2.26863 3.9 2.6 3.9H13.4C13.7314 3.9 14 4.16863 14 4.5C14 4.83137 13.7314 5.1 13.4 5.1H2.6C2.26863 5.1 2 4.83137 2 4.5Z" fill="#959DAD"/>
<path fill-rule="evenodd" clip-rule="evenodd" d="M5.6 6.3C5.93137 6.3 6.2 6.56863 6.2 6.9C6.2 7.37739 6.38964 7.83523 6.72721 8.17279C7.06477 8.51036 7.52261 8.7 8 8.7C8.47739 8.7 8.93523 8.51036 9.27279 8.17279C9.61036 7.83523 9.8 7.37739 9.8 6.9C9.8 6.56863 10.0686 6.3 10.4 6.3C10.7314 6.3 11 6.56863 11 6.9C11 7.69565 10.6839 8.45871 10.1213 9.02132C9.55871 9.58393 8.79565 9.9 8 9.9C7.20435 9.9 6.44129 9.58393 5.87868 9.02132C5.31607 8.45871 5 7.69565 5 6.9C5 6.56863 5.26863 6.3 5.6 6.3Z" fill="#959DAD"/>
</svg>

<svg width="16" height="16" fill="none" xmlns="http://www.w3.org/2000/svg"><path fill-rule="evenodd" clip-rule="evenodd" d="M3.92 1.74a.6.6 0 01.48-.24h7.2a.6.6 0 01.48.24l1.8 2.4a.6.6 0 01.12.36v8.4a1.8 1.8 0 01-1.8 1.8H3.8A1.8 1.8 0 012 12.9V4.5a.6.6 0 01.12-.36l1.8-2.4zm.78.96l-1.5 2v8.2a.6.6 0 00.6.6h8.4a.6.6 0 00.6-.6V4.7l-1.5-2H4.7z" fill="#959DAD"/><path fill-rule="evenodd" clip-rule="evenodd" d="M2 4.5a.6.6 0 01.6-.6h10.8a.6.6 0 110 1.2H2.6a.6.6 0 01-.6-.6zM5.6 6.3a.6.6 0 01.6.6 1.8 1.8 0 103.6 0 .6.6 0 111.2 0 3 3 0 01-6 0 .6.6 0 01.6-.6z" fill="#959DAD"/></svg>
